icons/icon-m-camera-flash-off-screen.svg

<?xml version="1.0" encoding="utf-8"?>
<!-- Generator: Adobe Illustrator 16.0.0, SVG Export Plug-In . SVG Version: 6.00 Build 0)  -->
<!DOCTYPE svg PUBLIC "-//W3C//DTD SVG 1.1//EN" "http://www.w3.org/Graphics/SVG/1.1/DTD/svg11.dtd">
<svg version="1.1"
	 id="icon-m-camera-flash-off-screen-layer" xmlns:dc="http://purl.org/dc/elements/1.1/" xmlns:cc="http://creativecommons.org/ns#" xmlns:rdf="http://www.w3.org/1999/02/22-rdf-syntax-ns#" xmlns:svg="http://www.w3.org/2000/svg" xmlns:sodipodi="http://sodipodi.sourceforge.net/DTD/sodipodi-0.dtd" xmlns:inkscape="http://www.inkscape.org/namespaces/inkscape" inkscape:version="0.48.3.1 r9886" sodipodi:docname="icon-m-camera-flash-off-screen.svg"
	 xmlns="http://www.w3.org/2000/svg" xmlns:xlink="http://www.w3.org/1999/xlink" x="0px" y="0px" width="48px" height="48px"
	 viewBox="0 0 48 48" enable-background="new 0 0 48 48" xml:space="preserve">
<sodipodi:namedview  showgrid="false" inkscape:cy="24.130847" inkscape:cx="8.8070395" inkscape:zoom="9.8390732" borderopacity="1" bordercolor="#666666" pagecolor="#ffffff" id="namedview3011" inkscape:current-layer="icon-m-camera-flash-off-screen-layer" inkscape:pageshadow="2" inkscape:pageopacity="0" inkscape:window-maximized="1" inkscape:window-y="30" inkscape:window-x="0" inkscape:window-height="686" inkscape:window-width="1024" objecttolerance="10" guidetolerance="10" gridtolerance="10">
	</sodipodi:namedview>
<g id="icon-m-camera-flash-off-screen" transform="matrix(1.3779573,0,0,1.3779573,1.9526832,1.9526832)">
	<rect id="rect3005" x="0" y="0" fill="none" width="32" height="32"/>
	<path id="path3007" inkscape:connector-curvature="0" fill="#FFFFFF" d="M16,0.451C7.441,0.452,0.5,7.396,0.5,15.96
		c0,8.554,6.941,15.489,15.5,15.491c8.558-0.002,15.498-6.938,15.5-15.491C31.498,7.396,24.559,0.452,16,0.451z M26.288,24.186
		l-4.34-4.342l-2.278,1.83l4.564,4.565c-2.256,1.807-5.116,2.894-8.233,2.896C8.72,29.125,2.827,23.233,2.813,15.96
		c0.007-3.118,1.093-5.981,2.903-8.24l3.837,3.837l2.181-1.926L7.77,5.664c2.256-1.808,5.116-2.893,8.23-2.896V2.765
		c7.278,0.014,13.173,5.911,13.186,13.195C29.182,19.072,28.097,21.932,26.288,24.186z"/>
</g>
<g id="icon-m-camera-flash-always-screen" transform="matrix(1.368429,0,0,1.368429,2.105136,2.105136)">
	<rect id="rect4" x="8.68" y="6.535" fill="none" width="20.48" height="20.48"/>
	<polygon id="polygon6" fill="#FFFFFF" points="20.2,6.018 11.854,15.47 15.104,16.481 9.32,26.695 21.503,12.862 16.851,13.575 	
		"/>
</g>
</svg>

<?xml version="1.0" encoding="UTF-8" standalone="no"?>
<!-- Generator: Adobe Illustrator 14.0.0, SVG Export Plug-In . SVG Version: 6.00 Build 43363)  -->

<svg
   xmlns:dc="http://purl.org/dc/elements/1.1/"
   xmlns:cc="http://creativecommons.org/ns#"
   xmlns:rdf="http://www.w3.org/1999/02/22-rdf-syntax-ns#"
   xmlns:svg="http://www.w3.org/2000/svg"
   xmlns="http://www.w3.org/2000/svg"
   xmlns:sodipodi="http://sodipodi.sourceforge.net/DTD/sodipodi-0.dtd"
   xmlns:inkscape="http://www.inkscape.org/namespaces/inkscape"
   version="1.1"
   id="icon-m-camera-flash-off-screen-layer"
   x="0px"
   y="0px"
   width="48"
   height="48"
   viewBox="0 0 48 48"
   xml:space="preserve"
   inkscape:version="0.48.3.1 r9886"
   sodipodi:docname="icon-m-camera-flash-off-screen.svg"><metadata
   id="metadata3015"><rdf:RDF><cc:Work
       rdf:about=""><dc:format>image/svg+xml</dc:format><dc:type
         rdf:resource="http://purl.org/dc/dcmitype/StillImage" /></cc:Work></rdf:RDF></metadata><defs
   id="defs3013" /><sodipodi:namedview
   pagecolor="#ffffff"
   bordercolor="#666666"
   borderopacity="1"
   objecttolerance="10"
   gridtolerance="10"
   guidetolerance="10"
   inkscape:pageopacity="0"
   inkscape:pageshadow="2"
   inkscape:window-width="1024"
   inkscape:window-height="686"
   id="namedview3011"
   showgrid="false"
   inkscape:zoom="9.8390732"
   inkscape:cx="8.8070395"
   inkscape:cy="24.130847"
   inkscape:window-x="0"
   inkscape:window-y="30"
   inkscape:window-maximized="1"
   inkscape:current-layer="icon-m-camera-flash-off-screen-layer" />
<g
   id="icon-m-camera-flash-off-screen"
   transform="matrix(1.3779573,0,0,1.3779573,1.9526832,1.9526832)">
	<rect
   style="fill:none"
   width="32"
   height="32"
   id="rect3005"
   x="0"
   y="0" />
	<path
   style="fill:#ffffff"
   d="M 16,0.451 C 7.441,0.452 0.5,7.396 0.5,15.96 0.5,24.514 7.441,31.449 16,31.451 24.558,31.449 31.498,24.513 31.5,15.96 31.498,7.396 24.559,0.452 16,0.451 z m 10.288,23.735 -4.341,-4.342 -2.278,1.83 4.564,4.565 C 21.977,28.047 19.117,29.133 16,29.136 8.72,29.125 2.827,23.233 2.813,15.96 2.82,12.842 3.906,9.979 5.716,7.72 L 9.553,11.557 11.734,9.631 7.77,5.664 C 10.026,3.856 12.886,2.771 16,2.768 V 2.765 c 7.278,0.014 13.173,5.911 13.186,13.195 -0.004,3.112 -1.089,5.972 -2.898,8.226 z"
   id="path3007"
   inkscape:connector-curvature="0" />
	<polygon
   style="fill:#ffffff"
   points="17.273,12.979 20.297,6.264 11.509,14.03 16.177,16.779 9.703,25.639 22.297,15.526 "
   id="polygon3009" />
</g>
</svg>
